X: 1
T:Cavan's Own
R:Hornpipe
C:Ed Reavy
Z: transcribed by Bil 3/00
M:4/4
L:1/8
Z:Joe Reavy
N:Ed is truly Cavan's own, as is this
N:delightful dancing hornpipe.
K:A
ED|CEA,C EAce|dcBa gece|(3fga ec dcdf|edcd BGED|
CEA,C EAce|dcBc defg|aece dBGB|(3ABA GB A2:||
cd|eAce aece|fd (3dcd bagf|eAce aecA|BE (3EDE BEGB|
cAce aece|fdcd bagf|eAce dBGB|(3ABA GB A2:||
